x-pack/solutions/observability/plugins/apm/public/components/shared/span_icon/icons/sqs.svg

<svg width="19" height="18" viewBox="0 0 19 18" fill="none" xmlns="http://www.w3.org/2000/svg">
<g clip-path="url(#clip0_1421_84661)">
<path d="M0.5 0H18.5V18H0.5V0Z" fill="url(#paint0_linear_1421_84661)"/>
<path d="M5.70008 5.26666C6.19436 4.77137 6.78147 4.37843 7.4278 4.11032C8.07413 3.84221 8.76699 3.70421 9.46672 3.70421C10.1665 3.70421 10.8593 3.84221 11.5056 4.11032C12.152 4.37843 12.7391 4.77137 13.2334 5.26666C13.8024 5.82818 14.2356 6.51223 14.5001 7.26663L14.9334 7.09999C14.5318 5.96917 13.7891 4.9909 12.8078 4.30025C11.8264 3.6096 10.6549 3.24063 9.45491 3.24429C8.25492 3.24795 7.08565 3.62405 6.10856 4.32067C5.13146 5.01729 4.39472 6.00007 4.00006 7.13332L4.46666 7.29996C4.70541 6.53156 5.12892 5.83342 5.70008 5.26666V5.26666ZM13.2334 12.7339C12.7411 13.2327 12.1547 13.6289 11.508 13.8992C10.8614 14.1696 10.1676 14.3088 9.46672 14.3088C8.76587 14.3088 8.07199 14.1696 7.42539 13.8992C6.77879 13.6289 6.19233 13.2327 5.70008 12.7339C5.12422 12.1585 4.68058 11.4647 4.4 10.7006L3.96674 10.8672C4.21498 11.586 4.60271 12.2486 5.10768 12.8172C5.61264 13.3858 6.2249 13.849 6.90934 14.1804C7.59377 14.5118 8.3369 14.7048 9.09608 14.7483C9.85527 14.7918 10.6156 14.6849 11.3334 14.4339C12.1601 14.129 12.9189 13.6647 13.5666 13.0673C14.1858 12.4492 14.6536 11.6962 14.9334 10.8672L14.5001 10.7339C14.2195 11.4804 13.7883 12.1612 13.2334 12.7339V12.7339ZM5.33333 8.99998C5.33333 8.72306 5.25121 8.45237 5.09737 8.22213C4.94352 7.99189 4.72485 7.81244 4.46901 7.70647C4.21318 7.60051 3.93167 7.57279 3.66008 7.62683C3.38849 7.68086 3.13902 7.81422 2.94322 8.01003C2.74743 8.20585 2.61409 8.45533 2.56009 8.72692C2.50608 8.99852 2.53383 9.28003 2.63982 9.53586C2.74581 9.79168 2.92528 10.0103 3.15554 10.1642C3.38579 10.318 3.65649 10.4001 3.93341 10.4C4.11401 10.4083 4.29422 10.3767 4.46126 10.3076C4.62831 10.2385 4.77812 10.1334 4.90006 9.99996C5.16945 9.73594 5.32494 9.37707 5.33333 8.99998V8.99998ZM4.56678 9.63279C4.39502 9.79347 4.16861 9.88286 3.93341 9.88286C3.69821 9.88286 3.47179 9.79347 3.30003 9.63279C3.21324 9.55169 3.14404 9.45363 3.09672 9.34467C3.04941 9.23572 3.025 9.1182 3.025 8.99941C3.025 8.88063 3.04941 8.76311 3.09672 8.65416C3.14404 8.5452 3.21324 8.44713 3.30003 8.36604C3.38254 8.28168 3.48107 8.21465 3.58983 8.16889C3.6986 8.12313 3.81541 8.09955 3.93341 8.09955C4.05141 8.09955 4.16822 8.12313 4.27698 8.16889C4.38575 8.21465 4.48428 8.28168 4.56678 8.36604C4.65358 8.44713 4.72278 8.5452 4.77009 8.65416C4.8174 8.76311 4.84182 8.88063 4.84182 8.99941C4.84182 9.1182 4.8174 9.23572 4.77009 9.34467C4.72278 9.45363 4.65358 9.55169 4.56678 9.63279V9.63279ZM16.0672 7.99999C15.941 7.8658 15.7886 7.75887 15.6195 7.68577C15.4504 7.61268 15.2681 7.57497 15.0839 7.57497C14.8997 7.57497 14.7174 7.61268 14.5483 7.68577C14.3792 7.75887 14.2268 7.8658 14.1006 7.99999C13.9662 8.12955 13.8592 8.28487 13.7862 8.45669C13.7132 8.62851 13.6755 8.81328 13.6755 8.99998C13.6755 9.18667 13.7132 9.37145 13.7862 9.54326C13.8592 9.71508 13.9662 9.87041 14.1006 9.99996C14.2268 10.1342 14.3792 10.2411 14.5483 10.3142C14.7174 10.3873 14.8997 10.425 15.0839 10.425C15.2681 10.425 15.4504 10.3873 15.6195 10.3142C15.7886 10.2411 15.941 10.1342 16.0672 9.99996C16.6334 9.46671 16.6334 8.60004 16.0672 7.99999ZM15.7001 9.63279C15.5305 9.79207 15.3056 9.87913 15.073 9.87554C14.8403 9.87195 14.6182 9.77799 14.4537 9.61356C14.2891 9.44912 14.1949 9.2271 14.1911 8.99448C14.1873 8.76186 14.2742 8.53688 14.4333 8.36716C14.5926 8.19063 14.8154 8.08448 15.0529 8.07198C15.2904 8.05949 15.5231 8.14167 15.7001 8.30051C15.8774 8.4664 15.9834 8.69461 15.9958 8.93709C16.0082 9.17958 15.9261 9.41743 15.7667 9.60059L15.7001 9.63279ZM7.50008 11.3334C8.50006 10.3332 10.5 10.3332 11.4667 11.3334C11.5123 11.3751 11.5715 11.3988 11.6333 11.4C11.6642 11.4008 11.6949 11.3953 11.7236 11.3838C11.7522 11.3724 11.7783 11.3552 11.8001 11.3334C11.8219 11.3115 11.8391 11.2855 11.8506 11.2568C11.862 11.2282 11.8675 11.1975 11.8668 11.1666C11.8655 11.1048 11.8418 11.0456 11.8001 10.9999C11.3213 10.4463 11.0711 9.73133 11.1001 8.99998C11.0765 8.26946 11.3261 7.55639 11.8001 7.00001C11.8228 6.9783 11.841 6.95228 11.8535 6.92345C11.8661 6.89463 11.8727 6.86359 11.8731 6.83217C11.8734 6.80074 11.8675 6.76956 11.8557 6.74045C11.8438 6.71134 11.8262 6.6849 11.804 6.66268C11.7818 6.64046 11.7554 6.6229 11.7262 6.61104C11.6971 6.59918 11.666 6.59326 11.6345 6.59362C11.6031 6.59399 11.5721 6.60063 11.5432 6.61316C11.5144 6.62569 11.4884 6.64385 11.4667 6.66659C10.4667 7.66671 8.46673 7.66671 7.50008 6.66659C7.45552 6.62405 7.39609 6.60063 7.3345 6.60135C7.2729 6.60206 7.21403 6.62685 7.17047 6.6704C7.12692 6.71396 7.10213 6.77283 7.10142 6.83443C7.1007 6.89602 7.12412 6.95545 7.16666 7.00001C7.41521 7.26822 7.60802 7.58313 7.73391 7.92644C7.8598 8.26976 7.91626 8.63467 7.90002 8.99998C7.92706 9.73697 7.66372 10.4551 7.16666 10.9999C7.12388 11.0449 7.10003 11.1046 7.10003 11.1667C7.10003 11.2287 7.12388 11.2884 7.16666 11.3334C7.18756 11.357 7.21322 11.3758 7.24196 11.3888C7.2707 11.4017 7.30185 11.4084 7.33337 11.4084C7.36488 11.4084 7.39604 11.4017 7.42477 11.3888C7.45351 11.3758 7.47918 11.357 7.50008 11.3334V11.3334ZM8.13289 7.63324C9.01355 7.96666 9.98571 7.96666 10.8664 7.63324C10.5329 8.50236 10.5329 9.46413 10.8664 10.3332C9.98568 9.99996 9.01357 9.99996 8.13289 10.3332C8.46648 9.46418 8.46663 8.50241 8.13331 7.63324H8.13289ZM12.3996 9.99996L13.2329 9.16662C13.2565 9.14573 13.2754 9.12008 13.2883 9.09135C13.3013 9.06262 13.3079 9.03148 13.3079 8.99998C13.3079 8.96847 13.3013 8.93733 13.2883 8.9086C13.2754 8.87988 13.2565 8.85422 13.2329 8.83334L12.3996 7.99999L12.0667 8.36716L12.4672 8.76668H11.4V9.23327H12.4672L12.0667 9.63279L12.3996 9.99996ZM6.63299 9.99996L7.43286 9.16662C7.45644 9.14573 7.47532 9.12008 7.48825 9.09135C7.50118 9.06262 7.50787 9.03148 7.50787 8.99998C7.50787 8.96847 7.50118 8.93733 7.48825 8.9086C7.47532 8.87988 7.45644 8.85422 7.43286 8.83334L6.63284 7.99999L6.26666 8.36716L6.66674 8.76724H5.60009V9.23384H6.66674L6.26666 9.63279L6.63299 9.99996Z" fill="white"/>
</g>
<defs>
<linearGradient id="paint0_linear_1421_84661" x1="-19.1498" y1="34.7964" x2="17.9568" y2="1.38565" gradientUnits="userSpaceOnUse">
<stop stop-color="#B0084D"/>
<stop offset="1" stop-color="#FF4F8B"/>
</linearGradient>
<clipPath id="clip0_1421_84661">
<rect width="18" height="18" fill="white" transform="translate(0.5)"/>
</clipPath>
</defs>
</svg>

<svg xmlns="http://www.w3.org/2000/svg" width="19" height="18" fill="none"><g clip-path="url(#a)"><path fill="url(#b)" d="M.5 0h18v18H.5z"/><path fill="#fff" d="M5.7 5.267a5.32 5.32 0 0 1 7.533 0 5.25 5.25 0 0 1 1.267 2l.433-.167A5.795 5.795 0 0 0 4 7.133l.467.167A4.9 4.9 0 0 1 5.7 5.267m7.533 7.467a5.29 5.29 0 0 1-7.533 0A5.6 5.6 0 0 1 4.4 10.7l-.433.166a5.776 5.776 0 0 0 7.366 3.567 6.7 6.7 0 0 0 2.234-1.367 5.7 5.7 0 0 0 1.366-2.2l-.433-.133a5.8 5.8 0 0 1-1.267 2M5.333 9a1.4 1.4 0 1 0-1.4 1.4A1.23 1.23 0 0 0 4.9 10c.27-.264.425-.623.433-1m-.766.633a.927.927 0 0 1-1.267 0 .867.867 0 0 1 0-1.267.886.886 0 0 1 1.267 0 .867.867 0 0 1 0 1.267M16.067 8a1.35 1.35 0 0 0-1.966 0 1.39 1.39 0 0 0 0 2 1.35 1.35 0 0 0 1.966 0c.566-.533.566-1.4 0-2M15.7 9.633a.896.896 0 0 1-1.267-1.266.9.9 0 0 1 1.267-.066.937.937 0 0 1 .067 1.3zm-8.2 1.7c1-1 3-1 3.967 0a.25.25 0 0 0 .166.067.227.227 0 0 0 .234-.233A.26.26 0 0 0 11.8 11a2.88 2.88 0 0 1-.7-2 2.94 2.94 0 0 1 .7-2 .236.236 0 1 0-.333-.333c-1 1-3 1-3.967 0A.236.236 0 0 0 7.167 7 2.76 2.76 0 0 1 7.9 9a2.81 2.81 0 0 1-.733 2 .24.24 0 0 0 0 .333.223.223 0 0 0 .333 0m.633-3.7a3.86 3.86 0 0 0 2.733 0 3.77 3.77 0 0 0 0 2.7 3.86 3.86 0 0 0-2.733 0 3.77 3.77 0 0 0 0-2.7M12.4 10l.833-.833a.222.222 0 0 0 0-.334L12.4 8l-.333.367.4.4H11.4v.466h1.067l-.4.4zm-5.767 0 .8-.833a.223.223 0 0 0 0-.334L6.633 8l-.366.367.4.4H5.6v.467h1.067l-.4.399z"/></g><defs><linearGradient id="b" x1="-19.15" x2="17.957" y1="34.796" y2="1.386" gradientUnits="userSpaceOnUse"><stop stop-color="#B0084D"/><stop offset="1" stop-color="#FF4F8B"/></linearGradient><clipPath id="a"><path fill="#fff" d="M.5 0h18v18H.5z"/></clipPath></defs></svg>
